icons/mobile/24/svg/themes-24.svg

<svg width="24" height="24" viewBox="0 0 24 24" fill="none" xmlns="http://www.w3.org/2000/svg">
<path fill-rule="evenodd" clip-rule="evenodd" d="M12 2C13.529 2 15.4173 2.11563 17.5449 2.50781C18.669 2.7154 19.4998 3.69412 19.5 4.84766V11.9404C19.4998 13.3959 18.4941 14.6575 17.0771 14.9844C17.0703 14.9861 17.0635 14.9897 17.0566 14.9912L14.9971 15.4512L14.9814 19.3857C14.9754 20.8312 13.8022 21.9998 12.3564 22H11.6475C10.2937 22 9.17539 20.9745 9.03613 19.6543L9.02246 19.3867L9.00293 15.4512L6.94336 14.9912C5.51589 14.6718 4.50019 13.405 4.5 11.9414V4.84863C4.50017 3.71393 5.29913 2.72345 6.43164 2.5127C8.00054 2.22138 9.87926 2 12 2ZM6.25 11.9414C6.25019 12.5854 6.69693 13.1426 7.3252 13.2832L10.0664 13.8965L10.21 13.9414C10.531 14.0742 10.7483 14.3891 10.75 14.7461L10.7725 19.3789L10.7764 19.4688C10.8228 19.908 11.1957 20.25 11.6475 20.25H12.3564C12.8383 20.2498 13.2294 19.8601 13.2314 19.3779L13.25 14.7461C13.2518 14.3381 13.5355 13.9858 13.9336 13.8965L16.6641 13.2852C16.6677 13.2843 16.6712 13.283 16.6748 13.2822C17.3028 13.1417 17.7498 12.5837 17.75 11.9404V11H6.25V11.9414ZM8.0957 4.01758C7.62484 4.08216 7.17635 4.15459 6.75195 4.2334C6.46491 4.28677 6.25017 4.53979 6.25 4.84863V9.25H17.75V4.84766C17.7498 4.54965 17.5329 4.28509 17.2275 4.22852C16.9042 4.16891 16.5865 4.11699 16.2754 4.07031L16.1035 4.23535L14.5059 5.73047C14.1119 6.09814 13.4971 6.08782 13.1162 5.70703L12.04 4.63086H11.209L10.4854 5.23438C10.0724 5.57838 9.46059 5.53477 9.10059 5.13477L8.0957 4.01758Z" fill="black"/>
</svg>

<!-- This Source Code Form is subject to the terms of the Mozilla Public
   - License, v. 2.0. If a copy of the MPL was not distributed with this
   - file, You can obtain one at http://mozilla.org/MPL/2.0/. -->
<svg xmlns="http://www.w3.org/2000/svg" width="24" height="24" fill="none" viewBox="0 0 24 24">
    <path fill="#000" fill-rule="evenodd" d="M12 2c1.529 0 3.417.116 5.545.508a2.385 2.385 0 0 1 1.955 2.34v7.092a3.125 3.125 0 0 1-2.423 3.044l-.02.007-2.06.46-.016 3.935A2.625 2.625 0 0 1 12.356 22h-.708a2.626 2.626 0 0 1-2.612-2.346l-.014-.267-.02-3.936-2.059-.46a3.126 3.126 0 0 1-2.443-3.05V4.85c0-1.135.8-2.126 1.932-2.336A30.5 30.5 0 0 1 12 2m-5.75 9.941c0 .644.447 1.202 1.075 1.342l2.741.614.144.044a.88.88 0 0 1 .54.805l.023 4.633.003.09c.047.439.42.781.872.781h.708c.482 0 .873-.39.875-.872l.019-4.632a.875.875 0 0 1 .684-.85l2.73-.61.01-.004a1.376 1.376 0 0 0 1.076-1.342V11H6.25zm1.846-7.923q-.707.097-1.344.215a.62.62 0 0 0-.502.616V9.25h11.5V4.848a.635.635 0 0 0-.523-.62q-.484-.089-.952-.158l-.171.165-1.598 1.495a1 1 0 0 1-1.39-.023L12.04 4.631h-.831l-.724.603a1 1 0 0 1-1.384-.1z" clip-rule="evenodd" />
</svg>
